X:60
T:Rose Tree,The. TJD.60
M:2/4
L:1/8
Q:1/4=120
S:T.J.Dixon MS2, Lincolnshire, early 19thC
R:quick step
A:Lincolnshire, Holton le Moor
Z:vmp.R.Greig2010
K:D
f/e/|dBAF|A>BAB|d2f/e/d/e/|feef|!
dBAF|A>BAB|d2f/e/d/e/|fdd:|!
|:d|f>efg|a2gf|ebba|beef|!
dBAF|A>BAB|d2f/e/d/e/|fdd:|]

